X:1
T:Dimmi Filli mio ben
T:Dimmi Filli mio ben
T:Domenico Obizzi
T:Arietta
T:Source : Madrigali et arie a voce sola---Libro I ---Venetia---A.Vincenti---1627. Editor : André Vierendeels (06/03/16).
T:Notes : Original clefs : C1, F4 Editorial accidentals above the staff Note values have been halved Figures above the BC are notated in original print Dotted brackets indicate black notes Notation in original print : "Alfabeto d'ariette per la Chitarra alla Spagnola", realised by the editor.   
T:©
T:©
C:Domenico Obizzi
Z:©
%%score 1 { ( 2 3 ) | 4 }
L:1/8
Q:1/4=155
M:3/2
K:F
V:1 treble nm="Soprano" snm="S"
V:2 treble nm="MusicXML Part"
V:3 treble 
V:4 bass 
V:1
 z4 F4 C4 | F4 G4 G4 | A12 | A4 B4 c4 | d4 _e2 d2 c2 B2 | c4 c8- | c4 f4 _e4 | d8 d4 | c8 G4- | %9
w: Dim- mi,|Fil- li mio|ben,|Dim- mi, nel|tuo bel _ _ _|sen, hor|_ chi v'an-|ni- da|piu, hor|
w: S'à'un bel|se- re- no|di,|l'al- ba la|lu- ce'a- * * *|pri, per-|* che'l me-|ri- gio|fu, per-|
w: Trà'l dol-|ce ba- le-|nar,|io sen- to|ful- mi- * * *|nar, da|_ tuoi be-|gl'oc- chi|giu, den-|
w: Fam- mi'u-|na vo- ce'u-|dir,|che m'a- pra'il|tuo de- * * *|sir, trop-|* po deh|trop- p'hor|su, tu|
 G4 c4 B4 | A8 A4 | G8 C4 | D6 E2 F4 | G2 F2 G2 A2 B2- G2 | A8 F4 | G6 A2- B4 | %16
w: _ chi v'an-|ni- da|piu, lo|sde- gn'o _|la _ _ _ pie- *|tà, lo|sde- gn'o _|
w: * che'l mr-|ri- gio|fu, tor-|bi- do _|po- * * * sci'ah- *|i- me,|per- che _|
w: * tro'al mi-|se- ro|cor, sa-|et- te _|di- * * * ri- *|gor, se|mor- te'in _|
w: _ se' Fil-|li cru-|del, la|vo- ce'à _|un _ _ _ fe- *|del ne-|gar, hor _|
 c2 B2 c2 d2 _e2 c2 | d12 | z4 A2 B2 c2 A2 | d8 c4 | B8 B4 | A12 | z4 c4 G4 | A4 G4 F4 | G12 | %25
w: la _ _ _ pie- *|tà,|che'l _ _ _|cor spe-|rar non|si,|mà se|pur dee te-|mer|
w: can- * * * giar la|fè,|per- * * *|che can-|giar la|fè,|per- che|ri- tro- sa|star|
w: di- * * * mi _|vien,|se _ _ _|mor- te'in|di- mi|vien,|se mor-|te'in di- mi|vien,|
w: si _ _ _ ch'io'l _|so,|ne- * * *|gar, hor|si ch'io'l|so,|ne- gar,|hor si ch'io'l|so,|
 G6 c2 B4 | A6 B2 A4 | G12 | F6 B2 A4 | G6 A2 G4 | F12 |] %31
w: di- me- lo,|di- me- lo|tu,|di- me- lo,|di- me- lo|tu.|
w: di- me- lo,|di- me- lo|tu,|di- me- lo,|di- me- lo|tu.|
w: di- me- lo,|di- me- lo|tu,|di- me- lo,|di- me- lo|tu.|
w: non mel dir,|non mel dir|piu,|non mel dir,|non mel dir|piu.|
V:2
 c12- | c12- | c12 | c4 B4 A4 | B12 | A12 | c8 c4 | =B12 | G12 | G8 B4 | A12 | B8 A4 | F12 | %13
 F8 G4 | A8 A4 | c8 d4 | c12 | B12 | d4 c8 | B4 d4 f4 | d12 | c12 | A8 c4 | A12 | c8 G4 | c8 G4 | %26
 A12 | G4 B8 | c12 | d4 c8 | A12 |] %31
V:3
 A12 | A8 G4 | F12 | F4 D4 F4 | F4 D8 | C12 | A8 G4 | D12 | _E12 | _E8 D4 | F12 | D8 F4 | D8 C4 | %13
 D8 C4 | C8 F4 | G8 F4 | G8 A4 | D12 | F4 A8 | D4 F8 | G4 F4 E4 | A12 | F8 G4 | F12 | E8 D4 | %25
 E8 D4- | D12 | D12 | F4 A8 | G4 F4 E4 | C12 |] %31
V:4
 F,,8 F,,4 | F,8 E,4 | F,8 F,,4 | F,4 G,4 A,4 | B,4 G,8 | F,8 F,4 |"^b" F,8 C,4 | G,8 G,,4 | %8
 C,8 C,4 | C,8 G,,4 | D,8 D,4 | G,,8 A,,4 | B,,8 A,,4 | B,,8 C,4 | F,,4 F,4 D,4 | _E,8 D,4 | %16
 C,8 F,4 | B,,2 D,2 _E,2 F,2 G,2 A,2 | B,4 F,8 | B,4 A,8 | G,8 G,4 | F,8 F,,4 | F,8 E,4 | %23
 F,4 E,4 D,4 | C,8 =B,,4 | C,8 G,,4 |"^#" D,8 D,4 | G,,8 G,,4 | A,,4 F,,8 | B,,4 C,8 | F,,12 |] %31

